assets/bentoml/mono.svg

<svg viewBox="0 0 24 24" xmlns="http://www.w3.org/2000/svg"><path d="m16.3 11a1.1 1.1 0 1 0 0-2.2 1.1 1.1 0 0 0 0 2.2zm-4.4 0a1.1 1.1 0 1 0 0-2.2 1.1 1.1 0 0 0 0 2.2zm-6.23-11a1.2 1.2 0 0 0 -.815.318l-4.469 4.126a1.2 1.2 0 0 0 -.386.881v17.075a1.6 1.6 0 0 0 1.6 1.6h17.048a1.2 1.2 0 0 0 .911-.42l4.152-4.843a1.2 1.2 0 0 0 .289-.781v-16.356a1.6 1.6 0 0 0 -1.6-1.6zm.33.6h16.2a1.2 1.2 0 0 1 1.2 1.2v15.8a1.6 1.6 0 0 1 -1.6 1.6h-15.8a1.2 1.2 0 0 1 -1.2-1.2v-16.2a1.2 1.2 0 0 1 1.2-1.2z"/></svg>

<svg xmlns="http://www.w3.org/2000/svg" viewBox="0 0 24 24"><path d="M16.3 11a1.1 1.1 0 1 0 0-2.2 1.1 1.1 0 0 0 0 2.2m-4.4 0a1.1 1.1 0 1 0 0-2.2 1.1 1.1 0 0 0 0 2.2M5.67 0a1.2 1.2 0 0 0-.815.318L.386 4.444A1.2 1.2 0 0 0 0 5.325V22.4A1.6 1.6 0 0 0 1.6 24h17.048a1.2 1.2 0 0 0 .911-.42l4.152-4.843a1.2 1.2 0 0 0 .289-.781V1.6A1.6 1.6 0 0 0 22.4 0zM6 .6h16.2a1.2 1.2 0 0 1 1.2 1.2v15.8a1.6 1.6 0 0 1-1.6 1.6H6A1.2 1.2 0 0 1 4.8 18V1.8A1.2 1.2 0 0 1 6 .6"/></svg>
